dist/svgs/devui-icons/op/zoom-in.svg

<?xml version="1.0" encoding="UTF-8"?>
<svg width="16px" height="16px" viewBox="0 0 16 16" version="1.1" xmlns="http://www.w3.org/2000/svg" xmlns:xlink="http://www.w3.org/1999/xlink">
    <title>操作/放大</title>
    <desc>Created with Sketch.</desc>
    <g id="操作/放大" stroke="none" stroke-width="1" fill="none" fill-rule="evenodd">
        <g id="放大" fill="#293040" fill-rule="nonzero">
            <path d="M6,6 L6,4 L8,4 L8,6 L10,6 L10,8 L8,8 L8,10 L6,10 L6,8 L4,8 L4,6 L6,6 Z M12.6063847,11.1921711 L15.6568542,14.2426407 L14.2426407,15.6568542 L11.1921711,12.6063847 C10.0235906,13.4815965 8.5723351,14 7,14 C3.13400675,14 0,10.8659932 0,7 C0,3.13400675 3.13400675,0 7,0 C10.8659932,0 14,3.13400675 14,7 C14,8.5723351 13.4815965,10.0235906 12.6063847,11.1921711 L12.6063847,11.1921711 Z M7,12 C9.76142375,12 12,9.76142375 12,7 C12,4.23857625 9.76142375,2 7,2 C4.23857625,2 2,4.23857625 2,7 C2,9.76142375 4.23857625,12 7,12 Z" id="形状"></path>
        </g>
    </g>
</svg>

<svg xmlns="http://www.w3.org/2000/svg" viewBox="0 0 16 16"><path d="M6 6V4h2v2h2v2H8v2H6V8H4V6h2zm6.606 5.192l3.05 3.05-1.413 1.415-3.05-3.05a7 7 0 111.414-1.414zM7 12A5 5 0 107 2a5 5 0 000 10z"/></svg>
